X: 42925
T: Willafjord
R: reel
M: 4/4
K: Dmajor
(dB)|vA2u(FA) vDuAvFuA|B2(GB) DBGB|A2(FA) DAFA|EFGA GFED|
A2(FA) DAFA|B2(GB) DBGB|ABcd efge|f2d2 d2:|
(de)|f2(df) Afdf|geaf gfeg|f2(df) Afdf|e2(ce) Aece|
f2(df) Afdf|geaf gfec|ABcd efge|f2d2 d2:|

